svgs/sharp-regular/fence.svg

<svg xmlns="http://www.w3.org/2000/svg" viewBox="0 0 512 512"><!--! Font Awesome Pro 6.6.0 by @fontawesome - https://fontawesome.com License - https://fontawesome.com/license (Commercial License) Copyright 2024 Fonticons, Inc. --><path d="M48 115.9l16-16 16 16L80 432l-32 0 0-316.1zM30.1 65.9L0 96 0 432l0 48 48 0 32 0 48 0 0-48 0-32 64 0 0 32 0 48 48 0 32 0 48 0 0-48 0-32 64 0 0 32 0 48 48 0 32 0 48 0 0-48 0-336L481.9 65.9 448 32 414.1 65.9 384 96l0 64-64 0 0-64L289.9 65.9 256 32 222.1 65.9 192 96l0 64-64 0 0-64L97.9 65.9 64 32 30.1 65.9zM384 352l-64 0 0-144 64 0 0 144zm-192 0l-64 0 0-144 64 0 0 144zm48-236.1l16-16 16 16L272 432l-32 0 0-316.1zM432 432l0-316.1 16-16 16 16L464 432l-32 0z"/></svg>

<svg xmlns="http://www.w3.org/2000/svg" viewBox="0 0 512 512"><!--! Font Awesome Pro 6.4.2 by @fontawesome - https://fontawesome.com License - https://fontawesome.com/license (Commercial License) Copyright 2023 Fonticons, Inc. --><path d="M48 115.9l16-16 16 16V432H48V115.9zM30.1 65.9L0 96V432v48H48 80h48V432 400h64v32 48h48 32 48V432 400h64v32 48h48 32 48V432 96L481.9 65.9 448 32 414.1 65.9 384 96v64H320V96L289.9 65.9 256 32 222.1 65.9 192 96v64H128V96L97.9 65.9 64 32 30.1 65.9zM384 352H320V208h64V352zm-192 0H128V208h64V352zm48-236.1l16-16 16 16V432H240V115.9zM432 432V115.9l16-16 16 16V432H432z"/></svg>
